tools/download-figma-icons/icons/outlined-medium/alarm-sensor.svg

<svg width="24" height="24" viewBox="0 0 24 24" fill="none" xmlns="http://www.w3.org/2000/svg">
<path fill-rule="evenodd" clip-rule="evenodd" d="M2.98674 9.5289L3.00024 22.5024L21.196 22.4552L21.1472 9.5184L19.585 8.1399C19.423 7.99665 19.3307 7.79265 19.3307 7.5774V3.86415H17.6035V4.73115C17.6035 5.0259 17.4302 5.29365 17.1617 5.4144C16.8925 5.53515 16.5782 5.4879 16.3577 5.29365L12.0385 1.48515L2.98674 9.5289ZM20.8307 7.23839L22.15 8.40239C22.4665 8.67764 22.6472 9.07664 22.6472 9.49589V22.5024C22.6472 23.3026 21.9962 23.9551 21.196 23.9551H2.95224C2.15124 23.9551 1.50024 23.3026 1.50024 22.5024V9.49589C1.50024 9.07589 1.68174 8.67614 1.99899 8.40089L11.1175 0.360138C11.6627 -0.115362 12.4817 -0.117612 13.0262 0.356388L16.105 3.07064C16.1275 2.67689 16.4537 2.36414 16.8535 2.36414H20.0807C20.4955 2.36414 20.8307 2.70014 20.8307 3.11414V7.23839ZM11.1644 14.4508C11.1644 14.9525 11.5724 15.3605 12.0734 15.3605C12.5752 15.3605 12.9832 14.9525 12.9832 14.4508C12.9832 13.949 12.5752 13.541 12.0734 13.541C11.5724 13.541 11.1644 13.949 11.1644 14.4508ZM9.66444 14.4508C9.66444 13.1225 10.7452 12.041 12.0734 12.041C13.4017 12.041 14.4832 13.1225 14.4832 14.4508C14.4832 15.7798 13.4017 16.8605 12.0734 16.8605C10.7452 16.8605 9.66444 15.7798 9.66444 14.4508ZM9.60519 11.9907C9.89844 11.6975 9.89844 11.2235 9.60519 10.9302C9.31194 10.637 8.83794 10.637 8.54469 10.9302C7.60194 11.873 7.08294 13.1262 7.08294 14.459C7.08294 15.7925 7.60194 17.0457 8.54469 17.9885C8.69094 18.1347 8.88294 18.2082 9.07494 18.2082C9.26694 18.2082 9.45894 18.1347 9.60519 17.9885C9.89844 17.6952 9.89844 17.2212 9.60519 16.928C8.24469 15.5667 8.24469 13.352 9.60519 11.9907ZM14.5425 10.9301C14.8358 10.6369 15.3098 10.6369 15.603 10.9301C16.5458 11.8729 17.0648 13.1261 17.0648 14.4589C17.0648 15.7924 16.5458 17.0456 15.603 17.9884C15.4568 18.1346 15.2648 18.2081 15.0728 18.2081C14.8808 18.2081 14.6888 18.1346 14.5425 17.9884C14.2493 17.6959 14.2493 17.2211 14.5425 16.9279C15.903 15.5666 15.903 13.3519 14.5425 11.9906C14.2493 11.6974 14.2493 11.2234 14.5425 10.9301ZM6.00166 14.4509C6.00166 12.8286 6.63316 11.3039 7.77991 10.1564C8.07316 9.86385 8.07316 9.3891 7.77991 9.09585C7.48666 8.80335 7.01266 8.80335 6.71941 9.09585C5.28916 10.5269 4.50166 12.4281 4.50166 14.4509C4.50166 16.4736 5.28916 18.3749 6.71941 19.8051C6.86566 19.9514 7.05766 20.0249 7.24966 20.0249C7.44166 20.0249 7.63366 19.9514 7.77991 19.8051C8.07316 19.5119 8.07316 19.0371 7.77991 18.7446C6.63316 17.5971 6.00166 16.0724 6.00166 14.4509ZM16.3676 10.1566C16.0744 9.86338 16.0744 9.38938 16.3676 9.09613C16.6609 8.80288 17.1349 8.80288 17.4281 9.09613C18.8584 10.5264 19.6459 12.4276 19.6459 14.4511C19.6459 16.4739 18.8584 18.3751 17.4281 19.8046C17.2819 19.9516 17.0899 20.0244 16.8979 20.0244C16.7059 20.0244 16.5139 19.9516 16.3676 19.8046C16.0744 19.5121 16.0744 19.0374 16.3676 18.7441C17.5144 17.5974 18.1459 16.0726 18.1459 14.4511C18.1459 12.8289 17.5144 11.3034 16.3676 10.1566Z" fill="black"/>
</svg>

<svg xmlns="http://www.w3.org/2000/svg" width="24" height="24" fill="none" viewBox="0 0 24 24"><path fill="currentColor" fill-rule="evenodd" d="M2.987 9.529 3 22.502l18.196-.047-.049-12.937-1.562-1.378a.75.75 0 0 1-.254-.563V3.864h-1.727v.867a.75.75 0 0 1-1.246.563l-4.32-3.809zm17.844-2.29 1.319 1.163c.317.276.497.675.497 1.094v13.006c0 .8-.65 1.453-1.451 1.453H2.952A1.454 1.454 0 0 1 1.5 22.502V9.496c0-.42.182-.82.499-1.095L11.118.36a1.46 1.46 0 0 1 1.908-.005l3.079 2.715a.75.75 0 0 1 .749-.707h3.227a.75.75 0 0 1 .75.75zm-9.667 7.212a.91.91 0 0 0 1.82 0 .91.91 0 0 0-1.819 0m-1.5 0a2.413 2.413 0 0 1 2.41-2.41 2.413 2.413 0 0 1 2.41 2.41 2.413 2.413 0 0 1-2.41 2.41 2.41 2.41 0 0 1-2.41-2.41m-.059-2.46a.75.75 0 1 0-1.06-1.06 4.96 4.96 0 0 0-1.462 3.528c0 1.334.519 2.587 1.462 3.53a.75.75 0 0 0 1.06 0 .75.75 0 0 0 0-1.061 3.496 3.496 0 0 1 0-4.937m4.938-1.06a.75.75 0 0 1 1.06 0 4.96 4.96 0 0 1 1.462 3.528 4.96 4.96 0 0 1-1.462 3.53.75.75 0 0 1-1.06 0 .75.75 0 0 1 0-1.061 3.496 3.496 0 0 0 0-4.937.75.75 0 0 1 0-1.06m-8.541 3.52c0-1.622.631-3.147 1.778-4.295a.75.75 0 1 0-1.06-1.06 7.53 7.53 0 0 0-2.218 5.355 7.52 7.52 0 0 0 2.217 5.354.75.75 0 0 0 1.06 0 .75.75 0 0 0 0-1.06 6.04 6.04 0 0 1-1.777-4.294m10.366-4.294a.75.75 0 1 1 1.06-1.06 7.52 7.52 0 0 1 2.218 5.354 7.52 7.52 0 0 1-2.218 5.354.75.75 0 0 1-.53.22.75.75 0 0 1-.53-1.28 6.03 6.03 0 0 0 1.778-4.294 6.03 6.03 0 0 0-1.778-4.294" clip-rule="evenodd"/></svg>
